**harm	**harte	**timestamp	**phrase	**leadinstrument	**kern
*M4/4	*M4/4	*	*	*	*
*D:	*D:	*	*	*	*D:
1r;	N	0	.	r	1r;
=1	=1	=1	=1	=1	=1
*>A_chorus	*>A_chorus	*>A_chorus	*>A_chorus	*>A_chorus	*>A_chorus
2r	N	0.418	newline	voice	2r
4I	D:maj	1.829	.	voice	4D 4f# 4a
4V7	A:7	2.534	.	voice	4A 4cc# 4ee 4gg
=2	=2	=2	=2	=2	=2
1I	D:maj	3.24	newline	voice	1D 1f# 1a
=3	=3	=3	=3	=3	=3
2I	D:maj	6.787	.	voice	2D 2f# 2a
2I	D:maj6	8.56	.	voice	2D 2f# 2a
=4	=4	=4	=4	=4	=4
1IV	G:maj	10.334	.	voice	1G 1b 1dd
=5	=5	=5	=5	=5	=5
2IV	G:maj	13.881	.	voice	2G 2b 2dd
4Ic	D:maj/5	15.654	.	voice	4d 4f# 4A
4V7	A:7	16.541	.	voice	4A 4cc# 4ee 4gg
=6	=6	=6	=6	=6	=6
1I	D:maj	17.428	newline	voice	1D 1f# 1a
=7	=7	=7	=7	=7	=7
1II7	E:7	20.984	.	voice	1E 1g# 1b 1dd
=8	=8	=8	=8	=8	=8
2V7	A:7	24.54	.	voice	2A 2cc# 2ee 2gg
4IV	G:maj	26.318	.	voice	4G 4b 4dd
4#ivo7	G#:hdim7	27.207	.	voice	4G# 4b 4dd 4ff#
=9	=9	=9	=9	=9	=9
2V7	A:7	28.096	.	voice	2A 2cc# 2ee 2gg
4Ic	D:maj/5	29.874	.	voice	4d 4f# 4A
4V7	A:7	30.764	.	voice	4A 4cc# 4ee 4gg
=10	=10	=10	=10	=10	=10
1I	D:maj	31.653	newline	voice	1D 1f# 1a
=11	=11	=11	=11	=11	=11
2I	D:maj	35.254	.	voice	2D 2f# 2a
2I	D:maj6	37.054	.	voice	2D 2f# 2a
=12	=12	=12	=12	=12	=12
1IV	G:maj	38.855	.	voice	1G 1b 1dd
=13	=13	=13	=13	=13	=13
2IV	G:maj	42.456	.	voice	2G 2b 2dd
4Ic	D:maj/5	44.257	.	voice	4d 4f# 4A
4V7	A:7	45.157	.	voice	4A 4cc# 4ee 4gg
=14	=14	=14	=14	=14	=14
*>B_verse	*>B_verse	*>B_verse	*>B_verse	*>B_verse	*>B_verse
1I	D:maj	46.057	newline	voice	1D 1f# 1a
=15	=15	=15	=15	=15	=15
2ii7	E:min7	49.679	.	voice	2E 2g 2b 2dd
2V7	A:7	51.49	.	voice	2A 2cc# 2ee 2gg
=16	=16	=16	=16	=16	=16
2I	D:maj	53.301	.	voice	2D 2f# 2a
2IV	G:maj	55.112	.	voice	2G 2b 2dd
=17	=17	=17	=17	=17	=17
1I	D:maj	56.922	.	voice	1D 1f# 1a
=18	=18	=18	=18	=18	=18
1V	A:sus4(b7,9)	60.544	newline	voice	1A 1cc# 1ee
=19	=19	=19	=19	=19	=19
1V7	A:7	64.2	.	voice	1A 1cc# 1ee 1gg
=20	=20	=20	=20	=20	=20
1I	D:maj	67.856	.	voice	1D 1f# 1a
=21	=21	=21	=21	=21	=21
1I	D:maj	71.511	.	voice	1D 1f# 1a
=22	=22	=22	=22	=22	=22
1VII7	C#:9	75.167	newline	voice	1C# 1e# 1g# 1b
=23	=23	=23	=23	=23	=23
1VII7	C#:9	78.751	.	voice	1C# 1e# 1g# 1b
=24	=24	=24	=24	=24	=24
1iii	F#:min	82.335	.	voice	1F# 1a 1cc#
=25	=25	=25	=25	=25	=25
2V7	A:7	85.919	.	voice	2A 2cc# 2ee 2gg
4Ic	D:maj/5	87.711	.	voice	4d 4f# 4A
4V7	A:7	88.607	.	voice	4A 4cc# 4ee 4gg
=26	=26	=26	=26	=26	=26
*>A2_chorus	*>A2_chorus	*>A2_chorus	*>A2_chorus	*>A2_chorus	*>A2_chorus
1I	D:maj	89.503	newline	voice	1D 1f# 1a
=27	=27	=27	=27	=27	=27
2I	D:maj	93.204	.	voice	2D 2f# 2a
2I	D:maj6	95.055	.	voice	2D 2f# 2a
=28	=28	=28	=28	=28	=28
1IV	G:maj	96.905	.	voice	1G 1b 1dd
=29	=29	=29	=29	=29	=29
2IV	G:maj	100.606	.	voice	2G 2b 2dd
4I	D:maj	102.457	.	voice	4D 4f# 4a
4V7	A:7	103.382	.	voice	4A 4cc# 4ee 4gg
=30	=30	=30	=30	=30	=30
1I	D:maj	104.307	newline	voice	1D 1f# 1a
=31	=31	=31	=31	=31	=31
1II7	E:7	107.924	.	voice	1E 1g# 1b 1dd
=32	=32	=32	=32	=32	=32
2V7	A:7	111.541	.	voice	2A 2cc# 2ee 2gg
4IV	G:maj	113.349	.	voice	4G 4b 4dd
4#ivo7	G#:hdim7	114.253	.	voice	4G# 4b 4dd 4ff#
=33	=33	=33	=33	=33	=33
2V7	A:7	115.157	.	voice	2A 2cc# 2ee 2gg
4Ic	D:maj/5	116.966	.	voice	4d 4f# 4A
4V7	A:7	117.87	.	voice	4A 4cc# 4ee 4gg
=34	=34	=34	=34	=34	=34
1I	D:maj	118.774	newline	voice	1D 1f# 1a
=35	=35	=35	=35	=35	=35
2I	D:maj	122.454	.	voice	2D 2f# 2a
2Im7	D:7	124.294	.	voice	2D 2f# 2a 2cc#
=36	=36	=36	=36	=36	=36
1IV	G:maj	126.134	.	voice	1G 1b 1dd
=37	=37	=37	=37	=37	=37
2IV	G:maj	129.814	.	voice	2G 2b 2dd
2V	A:maj	131.654	.	voice	2A 2cc# 2ee
=38	=38	=38	=38	=38	=38
1I	D:maj	133.493	newline	voice	1D 1f# 1a
=39	=39	=39	=39	=39	=39
2I	D:maj	135.598	.	voice	2D 2f# 2a
2I	D:maj6	136.65	.	voice	2D 2f# 2a
=40	=40	=40	=40	=40	=40
1IV	G:maj	137.702	.	voice	1G 1b 1dd
=41	=41	=41	=41	=41	=41
2IV	G:maj	139.806	.	voice	2G 2b 2dd
4Ic	D:maj/5	140.859	.	voice	4d 4f# 4A
4V7	A:7	141.385	.	voice	4A 4cc# 4ee 4gg
1r;	N	141.911	.	r	1r;
=42	=42	=42	=42	=42	=42
1I	D:maj	144.015	newline	voice	1D 1f# 1a
=43	=43	=43	=43	=43	=43
2ii	E:min	146.358	.	voice	2E 2g 2b
2V7	A:7	147.53	.	voice	2A 2cc# 2ee 2gg
=44	=44	=44	=44	=44	=44
1I	D:maj	148.701	.	voice	1D 1f# 1a
=45	=45	=45	=45	=45	=45
1I7	D:maj7	151.044	.	voice	1D 1f# 1a 1cc#
1r;	N	153.388	.	r	1r;
1r;	N	155.492	.	r	1r;
*-	*-	*-	*-	*-	*-
!!!OTL: My Wish Came True
!!!COC: Elvis Presley
!!!BillboardChartDate: 1959/09/21
!!!BillboardPeak: 12
!!!BillboardWeeksOnChart: 11
!!!SampleTargetRank: 50
!!!SampleActualRank: 49
!!!SampleID#: 1055
!!!RDF**harmony: **recip + pitch class of root + harmonic quality
!!!RDF**harte: Chris Harte's syntax, used by MIREX
!!!RDF**phrase: newline = linebreak in original McGill transcription
!!!RDF**timestamp: McGill audio timestamp in seconds
!!!RDF**leadinstrument: original McGill primary instrumentation annotation
!!!RDT: 2017/01/12/
!!!ENC: Nathaniel Condit-Schultz
!!!EST: Awating manual error checking and editing.
